;FLAVOR:Marlin
;TIME:8154
;Filament used: 4.5863m
;Layer height: 0.1
;MINX:90.536
;MINY:83.511
;MINZ:0.3
;MAXX:159.464
;MAXY:171.489
;MAXZ:11.2
;Generated with Cura_SteamEngine 4.13.1
M140 S60
M105
M190 S60
M104 S200
M105
M109 S200
M82 ;absolute extrusion mode
G21 ;metric values
G90 ;absolute positioning
M82 ;set extruder to absolute mode
M107 ;start with the fan off
G28 X0 Y0 ;move X/Y to min endstops
M300 S1318 P266
G28 Z0 ;move Z to min endstops
G0 Z0.2
G92 E0 ;zero the extruded length
G1 X40 E25 F400 ; Extrude 25mm of filament in a 4cm line. Reduce speed (F) if you have a nozzle smaller than 0.4mm!
G92 E0 ;zero the extruded length again
G1 E-1 F500 ; Retract a little
G1 X80 F4000 ; Quickly wipe away from the filament line
M117 ; Printing…
G5
G92 E0
G92 E0
G1 F1500 E-6.5
;LAYER_COUNT:100
;LAYER:0
M107
G1 F600 Z1.3
G0 F3600 X96.066 Y88.964 Z1.3
;TYPE:SKIRT
G1 F600 Z0.3
G1 F1500 E0
G1 F3600 X96.517 Y88.58 E0.03584
G1 X97.016 Y88.26 E0.07171
G1 X97.451 Y88.051 E0.1009
G1 X107.604 Y83.845 E0.76583
G1 X108.165 Y83.656 E0.80165
G1 X108.747 Y83.544 E0.83751
G1 X109.284 Y83.511 E0.87006
G1 X137.716 Y83.511 E2.59032
G1 X138.307 Y83.551 E2.62616
G1 X138.887 Y83.67 E2.66198
G1 X139.396 Y83.845 E2.69455
G1 X149.549 Y88.051 E3.35947
G1 X150.079 Y88.314 E3.39527
G1 X150.57 Y88.646 E3.43113
G1 X151.011 Y89.041 E3.46695
G1 X151.395 Y89.492 E3.50279
G1 X151.715 Y89.991 E3.53866
G1 X151.924 Y90.426 E3.56786
G1 X159.13 Y107.821 E4.70707
G1 X159.319 Y108.382 E4.74288
G1 X159.431 Y108.964 E4.77874
G1 X159.464 Y109.501 E4.81129
G1 X159.464 Y142.499 E6.80782
G1 X159.424 Y143.09 E6.84366
G1 X159.305 Y143.67 E6.87948
G1 X159.13 Y144.179 E6.91205
G1 X151.924 Y161.574 E8.05125
G1 X151.661 Y162.104 E8.08705
G1 X151.329 Y162.595 E8.12291
G1 X150.934 Y163.036 E8.15873
G1 X150.483 Y163.42 E8.19457
G1 X149.984 Y163.74 E8.23044
G1 X149.549 Y163.949 E8.25964
G1 X132.154 Y171.155 E9.39884
G1 X131.593 Y171.344 E9.43466
G1 X131.011 Y171.456 E9.47052
G1 X130.474 Y171.489 E9.50307
G1 X116.526 Y171.489 E10.34699
G1 X115.935 Y171.449 E10.38283
G1 X115.355 Y171.33 E10.41865
G1 X114.846 Y171.155 E10.45122
G1 X97.451 Y163.949 E11.59042
G1 X96.921 Y163.686 E11.62622
G1 X96.43 Y163.354 E11.66208
G1 X95.989 Y162.959 E11.6979
G1 X95.605 Y162.508 E11.73374
G1 X95.285 Y162.009 E11.76961
G1 X95.076 Y161.574 E11.79881
G1 X90.87 Y151.421 E12.46373
G1 X90.681 Y150.86 E12.49955
G1 X90.569 Y150.278 E12.53541
G1 X90.536 Y149.741 E12.56796
G1 X90.536 Y102.259 E15.44083
G1 X90.576 Y101.668 E15.47667
G1 X90.695 Y101.088 E15.51249
G1 X90.87 Y100.579 E15.54506
G1 X95.076 Y90.426 E16.20999
G1 X95.339 Y89.896 E16.24578
G1 X95.671 Y89.405 E16.28165
G1 X96.066 Y88.964 E16.31747
G0 X96.455 Y89.232
G1 X96.891 Y88.881 E16.35133
G1 X97.373 Y88.595 E16.38524
G1 X97.628 Y88.478 E16.40222
G1 X107.781 Y84.272 E17.06714
G1 X108.313 Y84.095 E17.10107
G1 X108.864 Y83.996 E17.13494
G1 X109.284 Y83.973 E17.16039
G1 X137.716 Y83.973 E18.88065
G1 X138.275 Y84.013 E18.91456
G1 X138.822 Y84.132 E18.94843
G1 X139.219 Y84.272 E18.9739
G1 X149.372 Y88.478 E19.63882
G1 X149.873 Y88.729 E19.67273
G1 X150.333 Y89.048 E19.70659
G1 X150.743 Y89.43 E19.7405
G1 X151.094 Y89.866 E19.77437
G1 X151.38 Y90.348 E19.80828
G1 X151.497 Y90.603 E19.82525
G1 X158.703 Y107.998 E20.96446
G1 X158.88 Y108.53 E20.99838
G1 X158.979 Y109.081 E21.03225
G1 X159.002 Y109.501 E21.0577
G1 X159.002 Y142.499 E23.05423
G1 X158.962 Y143.058 E23.08813
G1 X158.843 Y143.605 E23.122
G1 X158.703 Y144.002 E23.14747
G1 X151.497 Y161.397 E24.28668
G1 X151.246 Y161.898 E24.32058
G1 X150.927 Y162.358 E24.35445
G1 X150.545 Y162.768 E24.38836
G1 X150.109 Y163.119 E24.42222
G1 X149.627 Y163.405 E24.45614
G1 X149.372 Y163.522 E24.47311
G1 X131.977 Y170.728 E25.61232
G1 X131.445 Y170.905 E25.64624
G1 X130.894 Y171.004 E25.68011
G1 X130.474 Y171.027 E25.70556
G1 X116.526 Y171.027 E26.54948
G1 X115.967 Y170.987 E26.58338
G1 X115.42 Y170.868 E26.61725
G1 X115.023 Y170.728 E26.64272
G1 X97.628 Y163.522 E27.78193
G1 X97.127 Y163.271 E27.81583
G1 X96.667 Y162.952 E27.8497
G1 X96.257 Y162.57 E27.88361
G1 X95.906 Y162.134 E27.91748
G1 X95.62 Y161.652 E27.95139
G1 X95.503 Y161.397 E27.96836
G1 X91.297 Y151.244 E28.63329
G1 X91.12 Y150.712 E28.66721
G1 X91.021 Y150.161 E28.70108
G1 X90.998 Y149.741 E28.72653
G1 X90.998 Y102.259 E31.5994
G1 X91.038 Y101.7 E31.63331
G1 X91.157 Y101.153 E31.66718
G1 X91.297 Y100.756 E31.69265
G1 X95.503 Y90.603 E32.35757
G1 X95.754 Y90.102 E32.39148
G1 X96.073 Y89.642 E32.42535
G1 X96.455 Y89.232 E32.45925
G0 X96.841 Y89.506
G1 X97.261 Y89.189 E32.49109
G1 X97.805 Y88.905 E32.52822
G1 X107.958 Y84.699 E33.19314
G1 X108.458 Y84.535 E33.22498
G1 X108.977 Y84.449 E33.25681
G1 X109.284 Y84.435 E33.27541
G1 X137.716 Y84.435 E34.99567
G1 X138.241 Y84.475 E35.02752
G1 X138.753 Y84.594 E35.05933
G1 X139.042 Y84.699 E35.07793
G1 X149.195 Y88.905 E35.74286
G1 X149.665 Y89.142 E35.7747
G1 X150.092 Y89.448 E35.80649
G1 X150.469 Y89.816 E35.83836
G1 X150.786 Y90.236 E35.8702
G1 X151.07 Y90.78 E35.90733
G1 X158.276 Y108.175 E37.04654
G1 X158.44 Y108.675 E37.07838
G1 X158.526 Y109.194 E37.11021
G1 X158.54 Y109.501 E37.1288
G1 X158.54 Y142.499 E39.12532
G1 X158.5 Y143.024 E39.15718
G1 X158.381 Y143.536 E39.18898
G1 X158.276 Y143.825 E39.20759
G1 X151.07 Y161.22 E40.34679
G1 X150.833 Y161.689 E40.37859
G1 X150.527 Y162.117 E40.41042
G1 X150.159 Y162.494 E40.4423
G1 X149.739 Y162.811 E40.47413
G1 X149.195 Y163.095 E40.51126
G1 X131.8 Y170.301 E41.65047
G1 X131.3 Y170.465 E41.68231
G1 X130.781 Y170.551 E41.71414
G1 X130.474 Y170.565 E41.73273
G1 X116.526 Y170.565 E42.57665
G1 X116.001 Y170.525 E42.6085
G1 X115.489 Y170.406 E42.64031
G1 X115.2 Y170.301 E42.65891
G1 X97.805 Y163.095 E43.79812
G1 X97.336 Y162.858 E43.82991
G1 X96.908 Y162.552 E43.86174
G1 X96.531 Y162.184 E43.89362
G1 X96.214 Y161.764 E43.92546
G1 X95.93 Y161.22 E43.96259
G1 X91.724 Y151.067 E44.62751
G1 X91.56 Y150.567 E44.65935
G1 X91.474 Y150.048 E44.69118
G1 X91.46 Y149.741 E44.70977
G1 X91.46 Y102.259 E47.58264
G1 X91.5 Y101.734 E47.6145
G1 X91.619 Y101.222 E47.6463
G1 X91.724 Y100.933 E47.66491
G1 X95.93 Y90.78 E48.32983
G1 X96.167 Y90.31 E48.36168
G1 X96.473 Y89.883 E48.39346
G1 X96.841 Y89.506 E48.42534
G0 X96.872 Y90.128
G1 X97.223 Y89.787 E48.45495
G1 X97.626 Y89.507 E48.48464
G1 X97.982 Y89.332 E48.50864
G1 X108.135 Y85.126 E49.17357
G1 X108.601 Y84.976 E49.20319
G1 X109.284 Y84.897 E49.24479
G1 X137.716 Y84.897 E50.96505
G1 X138.204 Y84.937 E50.99467
G1 X138.865 Y85.126 E51.03627
G1 X149.018 Y89.332 E51.70119
G1 X149.454 Y89.555 E51.73082
G1 X149.847 Y89.847 E51.76045
G1 X150.188 Y90.198 E51.79006
G1 X150.468 Y90.601 E51.81975
G1 X150.643 Y90.957 E51.84375
G1 X157.849 Y108.352 E52.98295
G1 X157.999 Y108.818 E53.01257
G1 X158.078 Y109.501 E53.05417
G1 X158.078 Y142.499 E55.0507
G1 X158.038 Y142.987 E55.08032
G1 X157.849 Y143.648 E55.12192
G1 X150.643 Y161.043 E56.26112
G1 X150.42 Y161.479 E56.29075
G1 X150.128 Y161.872 E56.32038
G1 X149.777 Y162.213 E56.34998
G1 X149.374 Y162.493 E56.37968
G1 X149.018 Y162.668 E56.40368
G1 X131.623 Y169.874 E57.54288
G1 X131.157 Y170.024 E57.5725
G1 X130.474 Y170.103 E57.6141
G1 X116.526 Y170.103 E58.45802
G1 X116.038 Y170.063 E58.48764
G1 X115.377 Y169.874 E58.52924
G1 X97.982 Y162.668 E59.66844
G1 X97.546 Y162.445 E59.69808
G1 X97.153 Y162.153 E59.7277
G1 X96.812 Y161.802 E59.75731
G1 X96.532 Y161.399 E59.787
G1 X96.357 Y161.043 E59.811
G1 X92.151 Y150.89 E60.47592
G1 X92.001 Y150.424 E60.50554
G1 X91.922 Y149.741 E60.54714
G1 X91.922 Y102.259 E63.42001
G1 X91.962 Y101.771 E63.44964
G1 X92.151 Y101.11 E63.49123
G1 X96.357 Y90.957 E64.15616
G1 X96.58 Y90.521 E64.18579
G1 X96.872 Y90.128 E64.21541
G0 X97.268 Y90.378
G1 X97.602 Y90.076 E64.24266
G1 X98.159 Y89.758 E64.28146
G1 X108.312 Y85.552 E64.94639
G1 X108.741 Y85.418 E64.97358
G1 X109.284 Y85.359 E65.00663
G1 X137.716 Y85.359 E66.72689
G1 X138.165 Y85.399 E66.75416
G1 X138.688 Y85.552 E66.78713
G1 X148.841 Y89.758 E67.45206
G1 X149.241 Y89.967 E67.47936
G1 X149.597 Y90.243 E67.50662
G1 X149.899 Y90.577 E67.53386
G1 X150.217 Y91.134 E67.57267
G1 X157.423 Y108.529 E68.71188
G1 X157.557 Y108.958 E68.73907
G1 X157.616 Y109.501 E68.77212
G1 X157.616 Y142.499 E70.76864
G1 X157.576 Y142.948 E70.79591
G1 X157.423 Y143.471 E70.82888
G1 X150.217 Y160.866 E71.96809
G1 X150.008 Y161.266 E71.99539
G1 X149.732 Y161.622 E72.02265
G1 X149.398 Y161.924 E72.04989
G1 X148.841 Y162.242 E72.0887
G1 X131.446 Y169.448 E73.22791
G1 X131.017 Y169.582 E73.2551
G1 X130.474 Y169.641 E73.28815
G1 X116.526 Y169.641 E74.13206
G1 X116.077 Y169.601 E74.15934
G1 X115.554 Y169.448 E74.19231
G1 X98.159 Y162.242 E75.33151
G1 X97.759 Y162.033 E75.35882
G1 X97.403 Y161.757 E75.38607
G1 X97.101 Y161.423 E75.41332
G1 X96.783 Y160.866 E75.45212
G1 X92.577 Y150.713 E76.11705
G1 X92.443 Y150.284 E76.14424
G1 X92.384 Y149.741 E76.17729
G1 X92.384 Y102.259 E79.05016
G1 X92.424 Y101.81 E79.07743
G1 X92.577 Y101.287 E79.1104
G1 X96.783 Y91.134 E79.77533
G1 X96.992 Y90.734 E79.80263
G1 X97.268 Y90.378 E79.82989
G0 X97.661 Y90.636
G1 X97.975 Y90.378 E79.85448
G1 X98.335 Y90.185 E79.87919
G1 X108.488 Y85.979 E80.54412
G1 X108.878 Y85.861 E80.56877
G1 X109.284 Y85.821 E80.59345
G1 X137.716 Y85.821 E82.31371
G1 X138.121 Y85.861 E82.33834
G1 X138.512 Y85.979 E82.36305
G1 X148.665 Y90.185 E83.02797
G1 X149.024 Y90.377 E83.0526
G1 X149.339 Y90.636 E83.07728
G1 X149.597 Y90.95 E83.10187
G1 X149.79 Y91.31 E83.12658
G1 X156.996 Y108.705 E84.26579
G1 X157.114 Y109.095 E84.29044
G1 X157.154 Y109.501 E84.31512
G1 X157.154 Y142.499 E86.31165
G1 X157.114 Y142.904 E86.33627
G1 X156.996 Y143.295 E86.36098
G1 X149.79 Y160.69 E87.50019
G1 X149.598 Y161.049 E87.52482
G1 X149.339 Y161.364 E87.54949
G1 X149.025 Y161.622 E87.57408
G1 X148.665 Y161.815 E87.5988
G1 X131.27 Y169.021 E88.738
G1 X130.88 Y169.139 E88.76266
G1 X130.474 Y169.179 E88.78734
G1 X116.526 Y169.179 E89.63125
G1 X116.121 Y169.139 E89.65588
G1 X115.73 Y169.021 E89.68059
G1 X98.335 Y161.815 E90.8198
G1 X97.976 Y161.623 E90.84443
G1 X97.661 Y161.364 E90.8691
G1 X97.403 Y161.05 E90.89369
G1 X97.21 Y160.69 E90.9184
G1 X93.004 Y150.537 E91.58333
G1 X92.886 Y150.147 E91.60798
G1 X92.846 Y149.741 E91.63267
G1 X92.846 Y102.259 E94.50553
G1 X92.886 Y101.854 E94.53016
G1 X93.004 Y101.463 E94.55487
G1 X97.21 Y91.31 E95.21979
G1 X97.402 Y90.951 E95.24443
G1 X97.661 Y90.636 E95.2691
G0 X98.049 Y90.904
G1 X98.512 Y90.612 E95.30222
G1 X108.665 Y86.406 E95.96715
G1 X109.01 Y86.306 E95.98888
G1 X109.284 Y86.283 E96.00552
G1 X137.716 Y86.283 E97.72577
G1 X138.073 Y86.323 E97.74751
G1 X138.335 Y86.406 E97.76414
G1 X148.488 Y90.612 E98.42906
G1 X148.802 Y90.786 E98.45078
G1 X149.071 Y91.024 E98.47252
G1 X149.363 Y91.487 E98.50564
G1 X156.569 Y108.882 E99.64484
G1 X156.669 Y109.227 E99.66657
G1 X156.692 Y109.501 E99.68321
G1 X156.692 Y142.499 E101.67973
G1 X156.652 Y142.856 E101.70147
G1 X156.569 Y143.118 E101.7181
G1 X149.363 Y160.513 E102.8573
G1 X149.189 Y160.827 E102.87902
G1 X148.951 Y161.096 E102.90076
G1 X148.488 Y161.388 E102.93387
G1 X131.093 Y168.594 E104.07308
G1 X130.748 Y168.694 E104.09481
G1 X130.474 Y168.717 E104.11145
G1 X116.526 Y168.717 E104.95536
G1 X116.169 Y168.677 E104.9771
G1 X115.907 Y168.594 E104.99373
G1 X98.512 Y161.388 E106.13293
G1 X98.198 Y161.214 E106.15466
G1 X97.929 Y160.976 E106.17639
G1 X97.637 Y160.513 E106.20951
G1 X93.431 Y150.36 E106.87443
G1 X93.331 Y150.015 E106.89616
G1 X93.308 Y149.741 E106.9128
G1 X93.308 Y102.259 E109.78567
G1 X93.348 Y101.902 E109.8074
G1 X93.431 Y101.64 E109.82403
G1 X97.637 Y91.487 E110.48896
G1 X97.811 Y91.173 E110.51068
G1 X98.049 Y90.904 E110.53241
G0 X98.431 Y91.187
G1 X98.689 Y91.039 E110.55041
G1 X108.842 Y86.833 E111.21533
G1 X109.284 Y86.745 E111.2426
G1 X137.716 Y86.745 E112.96286
G1 X138.158 Y86.833 E112.99013
G1 X148.311 Y91.039 E113.65505
G1 X148.574 Y91.191 E113.67343
G1 X148.788 Y91.406 E113.69178
G1 X148.936 Y91.664 E113.70978
G1 X156.142 Y109.059 E114.84899
G1 X156.23 Y109.501 E114.87625
G1 X156.23 Y142.499 E116.87278
G1 X156.142 Y142.941 E116.90004
G1 X148.936 Y160.336 E118.03925
G1 X148.784 Y160.599 E118.05763
G1 X148.569 Y160.813 E118.07598
G1 X148.311 Y160.961 E118.09398
G1 X130.916 Y168.167 E119.23319
G1 X130.474 Y168.255 E119.26045
G1 X116.526 Y168.255 E120.10437
G1 X116.084 Y168.167 E120.13164
G1 X98.689 Y160.961 E121.27084
G1 X98.426 Y160.809 E121.28922
G1 X98.212 Y160.594 E121.30758
G1 X98.064 Y160.336 E121.32557
G1 X93.858 Y150.183 E121.9905
G1 X93.77 Y149.741 E122.01777
G1 X93.77 Y102.259 E124.89063
G1 X93.858 Y101.817 E124.9179
G1 X98.064 Y91.664 E125.58283
G1 X98.216 Y91.401 E125.6012
G1 X98.431 Y91.187 E125.61956
G0 X98.616 Y91.642
G1 X98.866 Y91.466 E125.63806
G1 X109.019 Y87.26 E126.30298
G1 X109.284 Y87.207 E126.31933
G1 X137.716 Y87.207 E128.03959
G1 X137.981 Y87.26 E128.05594
G1 X148.134 Y91.466 E128.72087
G1 X148.333 Y91.591 E128.73509
G1 X148.509 Y91.841 E128.75359
G1 X155.715 Y109.236 E129.89279
G1 X155.768 Y109.501 E129.90914
G1 X155.768 Y142.499 E131.90567
G1 X155.715 Y142.764 E131.92202
G1 X148.509 Y160.159 E133.06122
G1 X148.384 Y160.358 E133.07544
G1 X148.134 Y160.534 E133.09394
G1 X130.739 Y167.74 E134.23315
G1 X130.474 Y167.793 E134.2495
G1 X116.526 Y167.793 E135.09341
G1 X116.261 Y167.74 E135.10976
G1 X98.866 Y160.534 E136.24897
G1 X98.667 Y160.409 E136.26319
G1 X98.491 Y160.159 E136.28169
G1 X94.285 Y150.006 E136.94661
G1 X94.232 Y149.741 E136.96296
G1 X94.232 Y102.259 E139.83583
G1 X94.285 Y101.994 E139.85218
G1 X98.491 Y91.841 E140.51711
G1 X98.616 Y91.642 E140.53133
G0 X99.043 Y91.893
G1 X109.196 Y87.687 E141.19625
G1 X109.284 Y87.669 E141.20169
G1 X137.716 Y87.669 E142.92195
G1 X137.804 Y87.687 E142.92738
G1 X147.957 Y91.893 E143.59231
G1 X148.082 Y92.018 E143.603
G1 X155.288 Y109.413 E144.74221
G1 X155.306 Y109.501 E144.74764
G1 X155.306 Y142.499 E146.74417
G1 X155.288 Y142.587 E146.7496
G1 X148.082 Y159.982 E147.88881
G1 X147.957 Y160.107 E147.8995
G1 X130.562 Y167.313 E149.03871
G1 X130.474 Y167.331 E149.04414
G1 X116.526 Y167.331 E149.88806
G1 X116.438 Y167.313 E149.89349
G1 X99.043 Y160.107 E151.0327
G1 X98.918 Y159.982 E151.04339
G1 X94.712 Y149.829 E151.70832
G1 X94.694 Y149.741 E151.71375
G1 X94.694 Y102.259 E154.58662
G1 X94.712 Y102.171 E154.59206
G1 X98.918 Y92.018 E155.25698
G1 X99.043 Y91.893 E155.26768
G1 F1500 E148.76768
G1 F600 Z1.3
;MESH:hardware.stl
G0 F3600 X130.428 Y166.869 Z1.3
;TYPE:WALL-OUTER
G1 F600 Z0.3
G1 F1500 E155.26768
G1 F1800 X116.572 Y166.869 E156.10603
G1 X99.307 Y159.718 E157.23669
G1 X95.156 Y149.695 E157.89308
G1 X95.156 Y102.305 E160.76038
G1 X99.307 Y92.282 E161.41676
G1 X109.33 Y88.131 E162.07315
G1 X137.67 Y88.131 E163.78784
G1 X147.693 Y92.282 E164.44423
G1 X154.844 Y109.547 E165.57489
G1 X154.844 Y142.453 E167.56585
G1 X147.693 Y159.718 E168.69651
G1 X130.428 Y166.869 E169.82718
G0 F3600 X130.228 Y166.869
G0 X130.228 Y166.361
G1 F1500 E163.32718
G1 F600 Z1.3
G0 F3600 X139.043 Y105.547 Z1.3
G1 F600 Z0.3
G1 F1500 E169.82718
G1 F1800 X139.4 Y105.582 E169.84888
G1 X139.757 Y105.547 E169.87059
G1 X140.101 Y105.442 E169.89235
G1 X140.418 Y105.273 E169.91408
G1 X140.695 Y105.045 E169.93579
G1 X140.923 Y104.768 E169.9575
G1 X141.092 Y104.451 E169.97923
G1 X141.197 Y104.107 E170.00099
G1 X141.232 Y103.75 E170.0227
G1 X141.197 Y103.393 E170.0444
G1 X141.092 Y103.049 E170.06616
G1 X140.923 Y102.732 E170.0879
G1 X140.695 Y102.455 E170.1096
G1 X140.418 Y102.227 E170.13131
G1 X140.101 Y102.058 E170.15305
G1 X139.757 Y101.953 E170.17481
G1 X139.4 Y101.918 E170.19651
G1 X139.043 Y101.953 E170.21822
G1 X138.699 Y102.058 E170.23998
G1 X138.382 Y102.227 E170.26171
G1 X138.105 Y102.455 E170.28342
G1 X137.877 Y102.732 E170.30513
G1 X137.708 Y103.049 E170.32686
G1 X137.603 Y103.393 E170.34862
G1 X137.568 Y103.75 E170.37033
G1 X137.603 Y104.107 E170.39203
G1 X137.708 Y104.451 E170.41379
G1 X137.877 Y104.768 E170.43553
G1 X138.105 Y105.045 E170.45723
G1 X138.382 Y105.273 E170.47894
G1 X138.699 Y105.442 E170.50068
G1 X139.043 Y105.547 E170.52244
G0 F3600 X139.242 Y105.566
G0 X139.4 Y106.046
;TYPE:WALL-INNER
G1 F1800 X139.848 Y106.002 E170.54967
